src/asset/site/footer_facebook.svg

<svg width="31" height="31" viewBox="0 0 31 31" fill="none" xmlns="http://www.w3.org/2000/svg">
    <path d="M30 15.5C30 23.5081 23.5081 30 15.5 30C7.49187 30 1 23.5081 1 15.5C1 7.49187 7.49187 1 15.5 1C23.5081 1 30 7.49187 30 15.5Z" stroke="currentColor" stroke-width="2"/>
    <path fill-rule="evenodd" clip-rule="evenodd" d="M16.3198 24H12.7725V15.999H11V13.2421H12.7725V11.587C12.7725 9.33805 13.7729 8 16.6167 8H18.9837V10.7579H17.5044C16.3973 10.7579 16.3241 11.1431 16.3241 11.8622L16.3192 13.2421H19L18.6862 15.999H16.3192V24H16.3198Z" fill="currentColor"/>
</svg>

<svg width="31" height="31" fill="none" xmlns="http://www.w3.org/2000/svg"><path d="M30 15.5C30 23.508 23.508 30 15.5 30S1 23.508 1 15.5 7.492 1 15.5 1 30 7.492 30 15.5z" stroke="currentColor" stroke-width="2"/><path fill-rule="evenodd" clip-rule="evenodd" d="M16.32 24h-3.547v-8.001H11v-2.757h1.773v-1.655c0-2.249 1-3.587 3.844-3.587h2.367v2.758h-1.48c-1.107 0-1.18.385-1.18 1.104l-.005 1.38H19L18.686 16H16.32V24z" fill="currentColor"/></svg>
